public/images/icons/wiki/book.svg

<svg fill="none" height="300" stroke-width="5" width="300" xmlns="http://www.w3.org/2000/svg"><g fill="none" stroke-width="5"><path d="m60 60a75 0 0 0 1 75 0 15 15 0 0 1 15 15 15-15 0 0 1 15-15 75 0 0 0 1 75 0m-180 180a75 0 0 0 0 75 0 15-15 0 0 0 15-15 15 15 0 0 0 15 15 75 0 0 0 0 75 0m-180-180v180m180-180v180z" stroke="#fff" stroke-linecap="square" stroke-linejoin="round"/><path d="m150 210q30-30 75-15m-75 15q-30-30-75-15m150-120q-45-15-75 15-30-30-75-15v120m150-120v120m-75-105v120m-60-60a0-45 0 0 0 0-45 30 15 0 0 0 30 15 15 30 0 0 0 15 30m-30-15v-30m60 45 15-45h15v45m-15-15h30" stroke="#eee" stroke-linecap="round"/></g></svg>

<svg xmlns="http://www.w3.org/2000/svg" baseProfile="full" version="1.1" width="300px" height="300px" style="fill: none; width: 300px; height: 300px; stroke-width: 5;"><path d="" style="stroke-width: 10; stroke-linecap: round; stroke-linejoin: round; stroke: rgb(68, 68, 68); fill: none;"></path><path d="M60,60 A75,0 0 0,1 135,60 A15,15 0 0,1 150,75 A15,-15 0 0,1 165,60 A75,0 0 0,1 240,60 M60,240 A75,0 0 0,0 135,240 A15,-15 0 0,0 150,225 A15,15 0 0,0 165,240 A75,0 0 0,0 240,240 M60,60 L60,60 L60,240 M240,60 L240,60 L240,240 Z " style="stroke-width: 5; stroke-linecap: square; stroke-linejoin: round; stroke: rgb(255, 255, 255); fill: none;"></path><path d="M150,210 Q180,180 225,195 M150,210 Q120,180 75,195 M225,75 Q180,60 150,90 Q120,60 75,75 L75,75 L75,195 M225,75 L225,75 L225,195 M150,90 L150,90 L150,210 M90,150 A0,-45 0 0,0 90,105 A30,15 0 0,0 120,120 A15,30 0 0,0 135,150 M105,135 L105,135 L105,105 M165,150 L165,150 L180,105 L195,105 L195,150 M180,135 L180,135 L210,135 " style="stroke-width: 5; stroke-linecap: round; stroke-linejoin: miter; stroke: rgb(238, 238, 238); fill: none;"></path></svg>
